src/assets/outline/SmsNotification.svg

<svg width="24" height="24" viewBox="0 0 24 24"  xmlns="http://www.w3.org/2000/svg">
<path d="M17 21.25H7C3.35 21.25 1.25 19.15 1.25 15.5V8.5C1.25 4.85 3.35 2.75 7 2.75H14C14.41 2.75 14.75 3.09 14.75 3.5C14.75 3.91 14.41 4.25 14 4.25H7C4.14 4.25 2.75 5.64 2.75 8.5V15.5C2.75 18.36 4.14 19.75 7 19.75H17C19.86 19.75 21.25 18.36 21.25 15.5V10.5C21.25 10.09 21.59 9.75 22 9.75C22.41 9.75 22.75 10.09 22.75 10.5V15.5C22.75 19.15 20.65 21.25 17 21.25Z" />
<path d="M11.9998 12.8698C11.1598 12.8698 10.3098 12.6098 9.65978 12.0798L6.52978 9.57978C6.20978 9.31978 6.14978 8.84978 6.40978 8.52978C6.66978 8.20978 7.13977 8.14978 7.45977 8.40978L10.5898 10.9098C11.3498 11.5198 12.6398 11.5198 13.3998 10.9098L14.5798 9.96978C14.8998 9.70978 15.3798 9.75977 15.6298 10.0898C15.8898 10.4098 15.8398 10.8898 15.5098 11.1398L14.3298 12.0798C13.6898 12.6098 12.8398 12.8698 11.9998 12.8698Z" />
<path d="M19.5 8.75C17.71 8.75 16.25 7.29 16.25 5.5C16.25 3.71 17.71 2.25 19.5 2.25C21.29 2.25 22.75 3.71 22.75 5.5C22.75 7.29 21.29 8.75 19.5 8.75ZM19.5 3.75C18.54 3.75 17.75 4.54 17.75 5.5C17.75 6.46 18.54 7.25 19.5 7.25C20.46 7.25 21.25 6.46 21.25 5.5C21.25 4.54 20.46 3.75 19.5 3.75Z" />
</svg>

<?xml version="1.0" encoding="UTF-8"?>
<svg width="24" height="24" viewBox="0 0 24 24" xmlns="http://www.w3.org/2000/svg">
 <path d="m17 21.25h-10c-3.65 0-5.75-2.1-5.75-5.75v-7c0-3.65 2.1-5.75 5.75-5.75h7c0.41 0 0.75 0.34 0.75 0.75s-0.34 0.75-0.75 0.75h-7c-2.86 0-4.25 1.39-4.25 4.25v7c0 2.86 1.39 4.25 4.25 4.25h10c2.86 0 4.25-1.39 4.25-4.25v-5c0-0.41 0.34-0.75 0.75-0.75s0.75 0.34 0.75 0.75v5c0 3.65-2.1 5.75-5.75 5.75z"/>
 <path d="m12 12.87c-0.84 0-1.69-0.26-2.34-0.79l-3.13-2.5c-0.32-0.26-0.38-0.73-0.12-1.05s0.72999-0.38 1.05-0.12l3.13 2.5c0.76 0.61 2.05 0.61 2.81 0l1.18-0.94002c0.32-0.26 0.8-0.21001 1.05 0.12002 0.26 0.32 0.21 0.8-0.12 1.05l-1.18 0.94c-0.64 0.53-1.49 0.79-2.33 0.79z"/>
 <path d="m19.5 8.75c-1.79 0-3.25-1.46-3.25-3.25s1.46-3.25 3.25-3.25 3.25 1.46 3.25 3.25-1.46 3.25-3.25 3.25zm0-5c-0.96 0-1.75 0.79-1.75 1.75s0.79 1.75 1.75 1.75 1.75-0.79 1.75-1.75-0.79-1.75-1.75-1.75z"/>
</svg>
